X:198
T:Queens berry House
O:No 198  Page 98 William Clarke of Feltwell
M:2/4
L:1/8
K:D
B|AFED|G2GB|AFED|E2EB|AFED|G2GB|AFdF|D2D::A|defd|gfef|defd|ecBA|defd|gfef|(f/g/a) Ac|d2d:|

